icon-themes/sifr_svg/cmd/lc_view100.svg

<svg viewBox="0 0 24 24" xmlns="http://www.w3.org/2000/svg"><path d="m4.59375 3c-.8836 0-1.59375.73199-1.59375 1.625v14.75c0 .89301.71015 1.625 1.59375 1.625h14.8125c.8836 0 1.59375-.73199 1.59375-1.625v-14.75c0-.89301-.71015-1.625-1.59375-1.625zm7.5625 5h1.84375v8h-2v-4.5-.5h-.5-1.5v-1.15625c.51236-.0857 1.04417-.14739 1.375-.46875.36769-.35717.56719-.8488.78125-1.375z" fill="#555753"/></svg>

<svg xmlns="http://www.w3.org/2000/svg" viewBox="0 0 24 24">
 <path
     style="fill:#555753"
     d="M 4.59375 3 C 3.71015 3 3 3.73199 3 4.625 L 3 19.375 C 3 20.26801 3.71015 21 4.59375 21 L 19.40625 21 C 20.28985 21 21 20.26801 21 19.375 L 21 4.625 C 21 3.73199 20.28985 3 19.40625 3 L 4.59375 3 z M 12.15625 8 L 14 8 L 14 16 L 12 16 L 12 11.5 L 12 11 L 11.5 11 L 10 11 L 10 9.84375 C 10.51236 9.75805 11.04417 9.69636 11.375 9.375 C 11.74269 9.01783 11.94219 8.5262 12.15625 8 z "
     />
 </svg>
